icons/tools.svg

<?xml version="1.0" encoding="UTF-8"?>
<svg width="50" height="50" version="1.1" viewBox="0 0 50 50" xmlns="http://www.w3.org/2000/svg">
<path d="m13.75 5s-6.25 1.25-6.25 7.5c0 0 0 5 5 6.25l-1.25 20s-1.25 6.25 5 6.25 5-6.25 5-6.25l-1.25-20c5-1.25 5-6.25 5-6.25 0-6.25-6.25-7.5-6.25-7.5v7.5h-5zm18.75 0-2.5 7.5 2.5 2.5v10s-5 0-5 5v10s0 5 5 5h5c5 0 5-5 5-5v-10c0-5-5-5-5-5v-10l2.5-2.5-2.5-7.5zm-16.25 32.5a2.5 2.5 0 0 1 2.5 2.5 2.5 2.5 0 0 1-2.5 2.5 2.5 2.5 0 0 1-2.5-2.5 2.5 2.5 0 0 1 2.5-2.5z"/>
</svg>

<?xml version="1.0" encoding="UTF-8" standalone="no"?>
<svg
   xmlns:dc="http://purl.org/dc/elements/1.1/"
   xmlns:cc="http://creativecommons.org/ns#"
   xmlns:rdf="http://www.w3.org/1999/02/22-rdf-syntax-ns#"
   xmlns:svg="http://www.w3.org/2000/svg"
   xmlns="http://www.w3.org/2000/svg"
   id="svg4"
   viewBox="0 0 50 50"
   version="1.1"
   width="50"
   height="50">
  <metadata
     id="metadata10">
    <rdf:RDF>
      <cc:Work
         rdf:about="">
        <dc:format>image/svg+xml</dc:format>
        <dc:type
           rdf:resource="http://purl.org/dc/dcmitype/StillImage" />
        <dc:title></dc:title>
      </cc:Work>
    </rdf:RDF>
  </metadata>
  <defs
     id="defs8" />
  <path
     id="path871"
     d="m 13.75,5 c 0,0 -6.25,1.25 -6.25,7.5 0,0 0,5 5,6.25 l -1.25,20 c 0,0 -1.25,6.25 5,6.25 6.25,0 5,-6.25 5,-6.25 L 20,18.75 C 25,17.5 25,12.5 25,12.5 25,6.25 18.75,5 18.75,5 v 7.5 h -5 z M 32.5,5 30,12.5 32.5,15 v 10 c 0,0 -5,0 -5,5 v 10 c 0,0 0,5 5,5 h 5 c 5,0 5,-5 5,-5 V 30 c 0,-5 -5,-5 -5,-5 V 15 L 40,12.5 37.5,5 Z M 16.25,37.5 a 2.5,2.5 0 0 1 2.5,2.5 2.5,2.5 0 0 1 -2.5,2.5 2.5,2.5 0 0 1 -2.5,-2.5 2.5,2.5 0 0 1 2.5,-2.5 z" />
</svg>
